X: 20060
T: Jimmy Lyons
R: strathspey
M: 4/4
K: Amajor
A>a g>a cA|F>A d>c (3BcB|A>a g>a eA|F>A G>B (3BcA|
A>a g>a eA|F>A d>c B>G|A>a g>a eA|F>A G>B c<A||
1 (3gfe (3dcB (3Acd:|2 (3gbg (3efg (3acB||

